svgs/get_foreground_activity.svg

<svg xmlns="http://www.w3.org/2000/svg" width="192" height="192" fill="none" viewBox="0 0 192 192"><path stroke="#000" stroke-linejoin="round" stroke-width="12" d="M170 107.424V103c0-40.317-32.683-73-73-73h-2c-40.317 0-73 32.683-73 73v4.424m148 0V164a6 6 0 0 1-6 6H28a6 6 0 0 1-6-6v-56.576m148 0H22"/><circle cx="66" cy="74" r="4" stroke="#000" stroke-width="8"/><circle cx="126" cy="74" r="4" stroke="#000" stroke-width="8"/><path stroke="#000" stroke-linecap="round" stroke-width="12" d="m42 22 13 18m95-18-13 18"/></svg>

<svg width="192" height="192" viewBox="0 0 192 192" fill="none" xmlns="http://www.w3.org/2000/svg">
<path d="M170 107.424V103C170 62.6832 137.317 30 97 30H95C54.6832 30 22 62.6832 22 103V107.424M170 107.424V164C170 167.314 167.314 170 164 170H28C24.6863 170 22 167.314 22 164V107.424M170 107.424H22" stroke="black" stroke-width="12" stroke-linejoin="round"/>
<circle cx="66" cy="74" r="4" stroke="black" stroke-width="8"/>
<circle cx="126" cy="74" r="4" stroke="black" stroke-width="8"/>
<path d="M42 22L55 40" stroke="black" stroke-width="12" stroke-linecap="round"/>
<path d="M150 22L137 40" stroke="black" stroke-width="12" stroke-linecap="round"/>
</svg>
